X: 108204
T: LOCH EARN
Q:"Reel."
R: Reel.
%R:reel
B: James Kerr "Merry Melodies" v.1 p.8 s.2 #4
Z: 2017 John Chambers <jc:trillian.mit.edu>
M: C
L: 1/8
K: G
|:\
g2dB G2BG | E2AG FDD2 |\
g2dB G2BG | EAFD G2(Bd) :|\
efge fgaf | gfge fddf |
efge fgaf | gfed g2(Bd) |\
efge dBgB | caBg AFED |\
GABG EGce | dBcA HG2 "_Fine"(Bd) |]

% %newpage
%%sep 1 1 500
%%sep 1 1 500
%%center Set. 12th.

%%sep 1 1 500
%%sep 1 1 500

